common/src/main/resources/glyphs/javaee/javaee/ejbBusinessMethod.svg

<svg xmlns="http://www.w3.org/2000/svg" width="16" height="16" fill="#66BB6A" data-big="true" viewBox="0 0 24 24"><path d="M3 6h18v12H3zm9 3a3 3 0 0 1 3 3 3 3 0 0 1-3 3 3 3 0 0 1-3-3 3 3 0 0 1 3-3M7 8a2 2 0 0 1-2 2v4a2 2 0 0 1 2 2h10a2 2 0 0 1 2-2v-4a2 2 0 0 1-2-2z"/></svg>

<!--
  - The MIT License (MIT)
  -
  - Copyright (c) 2015-2024 Elior "Mallowigi" Boukhobza
  -
  - Permission is hereby granted, free of charge, to any person obtaining a copy
  - of this software and associated documentation files (the "Software"), to deal
  - in the Software without restriction, including without limitation the rights
  - to use, copy, modify, merge, publish, distribute, sublicense, and/or sell
  - copies of the Software, and to permit persons to whom the Software is
  - furnished to do so, subject to the following conditions:
  -
  - The above copyright notice and this permission notice shall be included in all
  - copies or substantial portions of the Software.
  -
  - THE SOFTWARE IS PROVIDED "AS IS", WITHOUT WARRANTY OF ANY KIND, EXPRESS OR
  - IMPLIED, INCLUDING BUT NOT LIMITED TO THE WARRANTIES OF MERCHANTABILITY,
  - FITNESS FOR A PARTICULAR PURPOSE AND NONINFRINGEMENT. IN NO EVENT SHALL THE
  - AUTHORS OR COPYRIGHT HOLDERS BE LIABLE FOR ANY CLAIM, DAMAGES OR OTHER
  - LIABILITY, WHETHER IN AN ACTION OF CONTRACT, TORT OR OTHERWISE, ARISING FROM,
  - OUT OF OR IN CONNECTION WITH THE SOFTWARE OR THE USE OR OTHER DEALINGS IN THE
  - SOFTWARE.
  -->


<svg data-big="true" xmlns="http://www.w3.org/2000/svg" version="1.1" width="16px" height="16px" viewBox="0 0 24 24"
     fill="#66BB6A">
  <path
    d="M3,6H21V18H3V6M12,9A3,3 0 0,1 15,12A3,3 0 0,1 12,15A3,3 0 0,1 9,12A3,3 0 0,1 12,9M7,8A2,2 0 0,1 5,10V14A2,2 0 0,1 7,16H17A2,2 0 0,1 19,14V10A2,2 0 0,1 17,8H7Z"/>
</svg>
